icons/filled/brightness-auto.svg

<svg xmlns="http://www.w3.org/2000/svg" width="24" height="24" viewBox="0 0 24 24" fill="currentColor"><path d="M12.707 2.793l2.208 2.207h3.085a1 1 0 0 1 .993 .883l.007 .117v3.085l2.207 2.208a1 1 0 0 1 .083 1.32l-.083 .094l-2.207 2.207v3.086a1 1 0 0 1 -.883 .993l-.117 .007h-3.086l-2.207 2.207a1 1 0 0 1 -1.32 .083l-.094 -.083l-2.208 -2.207h-3.085a1 1 0 0 1 -.993 -.883l-.007 -.117v-3.085l-2.207 -2.208a1 1 0 0 1 -.083 -1.32l.083 -.094l2.207 -2.209v-3.084a1 1 0 0 1 .883 -.993l.117 -.007h3.084l2.209 -2.207a1 1 0 0 1 1.414 0m-.707 5.207a3 3 0 0 0 -3 3v3.5a1 1 0 0 0 2 0v-.5h2v.5a1 1 0 0 0 .883 .993l.117 .007a1 1 0 0 0 1 -1v-3.5a3 3 0 0 0 -3 -3m0 2a1 1 0 0 1 1 1v1h-2v-1a1 1 0 0 1 .883 -.993z"/></svg>

<svg xmlns="http://www.w3.org/2000/svg" width="24" height="24" fill="currentColor"><path d="M12.707 2.793 14.915 5H18a1 1 0 0 1 .993.883L19 6v3.085l2.207 2.208a1 1 0 0 1 .083 1.32l-.083.094L19 14.914V18a1 1 0 0 1-.883.993L18 19h-3.086l-2.207 2.207a1 1 0 0 1-1.32.083l-.094-.083L9.085 19H6a1 1 0 0 1-.993-.883L5 18v-3.085l-2.207-2.208a1 1 0 0 1-.083-1.32l.083-.094L5 9.084V6a1 1 0 0 1 .883-.993L6 5h3.084l2.209-2.207a1 1 0 0 1 1.414 0M12 8a3 3 0 0 0-3 3v3.5a1 1 0 0 0 2 0V14h2v.5a1 1 0 0 0 .883.993L14 15.5a1 1 0 0 0 1-1V11a3 3 0 0 0-3-3m0 2a1 1 0 0 1 1 1v1h-2v-1a1 1 0 0 1 .883-.993z"/></svg>
